polaris-icons/icons/newicons/SidebarLeftMajor.svg

<svg width="20" height="20" viewBox="0 0 20 20" fill="none" xmlns="http://www.w3.org/2000/svg">
<path fill-rule="evenodd" clip-rule="evenodd" d="M3 15.5C3 16.3284 3.67157 17 4.5 17H5.5C6.32843 17 7 16.3284 7 15.5V4.5C7 3.67157 6.32843 3 5.5 3H4.5C3.67157 3 3 3.67157 3 4.5V15.5ZM4.5 4.5L4.5 15.5H5.5L5.5 4.5H4.5Z" fill="black"/>
<path d="M10.25 17C9.2835 17 8.5 16.2165 8.5 15.25V14.25C8.5 13.8358 8.83579 13.5 9.25 13.5C9.66421 13.5 10 13.8358 10 14.25V15.25C10 15.3881 10.1119 15.5 10.25 15.5H11.25C11.6642 15.5 12 15.8358 12 16.25C12 16.6642 11.6642 17 11.25 17H10.25Z" fill="black"/>
<path d="M15.25 17C16.2165 17 17 16.2165 17 15.25V14.25C17 13.8358 16.6642 13.5 16.25 13.5C15.8358 13.5 15.5 13.8358 15.5 14.25V15.25C15.5 15.3881 15.3881 15.5 15.25 15.5H14.25C13.8358 15.5 13.5 15.8358 13.5 16.25C13.5 16.6642 13.8358 17 14.25 17H15.25Z" fill="black"/>
<path d="M8.5 4.75C8.5 3.7835 9.2835 3 10.25 3H11.25C11.6642 3 12 3.33579 12 3.75C12 4.16421 11.6642 4.5 11.25 4.5H10.25C10.1119 4.5 10 4.61193 10 4.75V5.75C10 6.16421 9.66421 6.5 9.25 6.5C8.83579 6.5 8.5 6.16421 8.5 5.75V4.75Z" fill="black"/>
<path d="M17 4.75C17 3.7835 16.2165 3 15.25 3H14.25C13.8358 3 13.5 3.33579 13.5 3.75C13.5 4.16421 13.8358 4.5 14.25 4.5L15.25 4.5C15.3881 4.5 15.5 4.61193 15.5 4.75V5.75C15.5 6.16421 15.8358 6.5 16.25 6.5C16.6642 6.5 17 6.16421 17 5.75V4.75Z" fill="black"/>
<path d="M9.25 8.25C9.66421 8.25 10 8.58579 10 9V11C10 11.4142 9.66421 11.75 9.25 11.75C8.83579 11.75 8.5 11.4142 8.5 11V9C8.5 8.58579 8.83579 8.25 9.25 8.25Z" fill="black"/>
<path d="M17 9C17 8.58579 16.6642 8.25 16.25 8.25C15.8358 8.25 15.5 8.58579 15.5 9V11C15.5 11.4142 15.8358 11.75 16.25 11.75C16.6642 11.75 17 11.4142 17 11V9Z" fill="black"/>
</svg>

<svg viewBox="0 0 20 20" fill="none" xmlns="http://www.w3.org/2000/svg"><path fill-rule="evenodd" clip-rule="evenodd" d="M3 15.5a1.5 1.5 0 0 0 1.5 1.5h1a1.5 1.5 0 0 0 1.5-1.5v-11a1.5 1.5 0 0 0-1.5-1.5h-1a1.5 1.5 0 0 0-1.5 1.5v11Zm1.5-11v11h1v-11h-1Z" fill="#5C5F62"/><path d="M10.25 17a1.75 1.75 0 0 1-1.75-1.75v-1a.75.75 0 0 1 1.5 0v1c0 .138.112.25.25.25h1a.75.75 0 0 1 0 1.5h-1Z" fill="#5C5F62"/><path d="M15.25 17a1.75 1.75 0 0 0 1.75-1.75v-1a.75.75 0 0 0-1.5 0v1a.25.25 0 0 1-.25.25h-1a.75.75 0 0 0 0 1.5h1Z" fill="#5C5F62"/><path d="M8.5 4.75c0-.966.784-1.75 1.75-1.75h1a.75.75 0 0 1 0 1.5h-1a.25.25 0 0 0-.25.25v1a.75.75 0 0 1-1.5 0v-1Z" fill="#5C5F62"/><path d="M17 4.75a1.75 1.75 0 0 0-1.75-1.75h-1a.75.75 0 0 0 0 1.5h1a.25.25 0 0 1 .25.25v1a.75.75 0 0 0 1.5 0v-1Z" fill="#5C5F62"/><path d="M9.25 8.25a.75.75 0 0 1 .75.75v2a.75.75 0 0 1-1.5 0v-2a.75.75 0 0 1 .75-.75Z" fill="#5C5F62"/><path d="M17 9a.75.75 0 0 0-1.5 0v2a.75.75 0 0 0 1.5 0v-2Z" fill="#5C5F62"/></svg>
